src/img/icons/op-ed.svg

<svg width="32" height="32" viewBox="0 0 32 32" fill="none" xmlns="http://www.w3.org/2000/svg">
<path d="M3.03477 19.4465C2.74159 19.4465 2.4959 19.3469 2.29771 19.1476C2.09924 18.948 2 18.701 2 18.4064C2 18.1116 2.09924 17.8663 2.29771 17.6706C2.4959 17.4749 2.74159 17.377 3.03477 17.377H12.8961C13.1893 17.377 13.435 17.4768 13.6332 17.6764C13.8316 17.8756 13.9309 18.1227 13.9309 18.4175C13.9309 18.7121 13.8316 18.9572 13.6332 19.1529C13.435 19.3487 13.1893 19.4465 12.8961 19.4465H3.03477ZM3.03477 12.7525C2.74159 12.7525 2.4959 12.6528 2.29771 12.4535C2.09924 12.2542 2 12.0073 2 11.7128C2 11.4248 2.09924 11.1813 2.29771 10.9823C2.4959 10.783 2.74159 10.6834 3.03477 10.6834H19.6849C19.9781 10.6834 20.2237 10.7848 20.4219 10.9876C20.6204 11.1902 20.7196 11.4373 20.7196 11.7288C20.7196 12.0201 20.6204 12.2636 20.4219 12.4593C20.2237 12.6547 19.9781 12.7525 19.6849 12.7525H3.03477ZM3.03477 6.06953C2.74159 6.06953 2.4959 5.96974 2.29771 5.77018C2.09924 5.57088 2 5.32382 2 5.029C2 4.73445 2.09924 4.48931 2.29771 4.29359C2.4959 4.09786 2.74159 4 3.03477 4H19.6849C19.9781 4 20.2237 4.09965 20.4219 4.29894C20.6204 4.49851 20.7196 4.74557 20.7196 5.04012C20.7196 5.33494 20.6204 5.58022 20.4219 5.77594C20.2237 5.97167 19.9781 6.06953 19.6849 6.06953H3.03477ZM16.1902 27.4179V24.8691C16.1902 24.7126 16.2204 24.5574 16.2808 24.4034C16.3415 24.2494 16.4395 24.1045 16.5748 23.9689L25.1251 15.4582C25.3316 15.2517 25.5545 15.1064 25.7938 15.0221C26.0332 14.9381 26.2713 14.8961 26.5082 14.8961C26.7666 14.8961 27.0168 14.9446 27.2589 15.0415C27.501 15.1386 27.721 15.2844 27.9189 15.4788L29.4425 17.0179C29.6311 17.223 29.7712 17.4448 29.8629 17.6834C29.9543 17.9219 30 18.1605 30 18.399C30 18.6375 29.951 18.8804 29.853 19.1274C29.7553 19.3745 29.612 19.6016 29.4231 19.8089L20.9272 28.3209C20.7916 28.4565 20.6466 28.5545 20.4924 28.6149C20.3384 28.6755 20.1831 28.7059 20.0266 28.7059H17.4782C17.1131 28.7059 16.8072 28.5825 16.5604 28.3357C16.3136 28.0886 16.1902 27.7827 16.1902 27.4179ZM18.1539 26.7422H19.7186L25.065 21.3699L24.3082 20.5875L23.5415 19.8151L18.1539 25.1775V26.7422ZM24.3082 20.5875L23.5415 19.8151L25.065 21.3699L24.3082 20.5875Z" fill="#131212"/>
</svg>

<svg xmlns="http://www.w3.org/2000/svg" viewBox="0 0 32 32">
  <path fill="currentColor" d="M3.035 19.447a.998.998 0 0 1-.737-.3 1.01 1.01 0 0 1-.298-.74 1.008 1.008 0 0 1 1.035-1.03h9.861c.293 0 .539.1.737.3.199.199.298.446.298.74a1.007 1.007 0 0 1-1.035 1.029H3.035Zm0-6.694a.998.998 0 0 1-.737-.3 1.008 1.008 0 0 1-.298-.74c0-.288.1-.532.298-.73a.998.998 0 0 1 .737-.3h16.65a.99.99 0 0 1 .737.305c.198.202.298.45.298.74 0 .292-.1.536-.298.731a1.008 1.008 0 0 1-.737.293H3.035Zm0-6.683a.997.997 0 0 1-.737-.3A1.009 1.009 0 0 1 2 5.03c0-.295.1-.54.298-.735.198-.196.444-.294.737-.294h16.65a1 1 0 0 1 .737.299c.198.2.298.447.298.741a1.007 1.007 0 0 1-1.035 1.03H3.035ZM16.19 27.418v-2.549c0-.156.03-.312.09-.466.061-.154.16-.298.295-.434l8.55-8.51c.207-.207.43-.353.669-.437.24-.084.477-.126.714-.126a2.002 2.002 0 0 1 1.41.583l1.524 1.539A2.036 2.036 0 0 1 30 18.399c0 .238-.049.481-.147.728a2.218 2.218 0 0 1-.43.682l-8.496 8.512a1.263 1.263 0 0 1-.9.385h-2.549c-.365 0-.67-.123-.918-.37a1.247 1.247 0 0 1-.37-.918Zm1.964-.676h1.565l5.346-5.372-.757-.783-.767-.772-5.387 5.362v1.565Zm6.154-6.155-.767-.772 1.524 1.555-.757-.783Z"/>
</svg>
